src/assets/svg/wrench.svg

<svg width="32.504" height="32.502" fill="none" xmlns="http://www.w3.org/2000/svg">
  <path d="M32.5 11.24a11.247 11.247 0 0 1-5.09 9.43 11.292 11.292 0 0 1-5.23 1.8c-1.87.15-3.74-.16-5.45-.91l-8.14 9.41-.06.06c-.94.94-2.21 1.47-3.53 1.47a5.003 5.003 0 0 1-5-5c0-1.33.52-2.6 1.46-3.54.02-.02.04-.04.07-.06l9.41-8.13c-.85-1.93-1.13-4.06-.83-6.14a11.35 11.35 0 0 1 2.55-5.65c1.36-1.6 3.14-2.8 5.14-3.44 2-.65 4.15-.72 6.19-.21a1.243 1.243 0 0 1 .89.86c.07.21.07.43.02.64-.05.21-.15.4-.3.56l-5.85 6.35.88 4.12 4.12.88 6.35-5.86a1.264 1.264 0 0 1 1.21-.28c.2.06.39.18.54.34.15.15.26.35.31.56.23.9.34 1.82.34 2.74Z" fill="#FCFCFC"/>
</svg>

<svg width="32.503662" height="32.501831" viewBox="0 0 32.5037 32.5018" fill="none" xmlns="http://www.w3.org/2000/svg" xmlns:xlink="http://www.w3.org/1999/xlink">
	<desc>
			Created with Pixso.
	</desc>
	<defs/>
	<path id="Vector" d="M32.5 11.24C32.5 13.12 32.04 14.96 31.15 16.6C30.26 18.25 28.97 19.65 27.41 20.67C25.84 21.7 24.04 22.31 22.18 22.47C20.31 22.62 18.44 22.31 16.73 21.56L8.59 30.97C8.57 30.99 8.55 31.01 8.53 31.03C7.59 31.97 6.32 32.5 5 32.5C3.67 32.5 2.4 31.97 1.46 31.03C0.52 30.09 0 28.82 0 27.5C0 26.17 0.52 24.9 1.46 23.96C1.48 23.94 1.5 23.92 1.53 23.9L10.94 15.77C10.09 13.84 9.81 11.71 10.11 9.63C10.42 7.55 11.3 5.59 12.66 3.98C14.02 2.38 15.8 1.18 17.8 0.54C19.8 -0.11 21.95 -0.18 23.99 0.33C24.2 0.38 24.39 0.49 24.55 0.64C24.71 0.79 24.82 0.98 24.88 1.19C24.95 1.4 24.95 1.62 24.9 1.83C24.85 2.04 24.75 2.23 24.6 2.39L18.75 8.74L19.63 12.86L23.75 13.74L30.1 7.88C30.26 7.73 30.45 7.63 30.67 7.58C30.88 7.53 31.1 7.54 31.31 7.6C31.51 7.66 31.7 7.78 31.85 7.94C32 8.09 32.11 8.29 32.16 8.5C32.39 9.4 32.5 10.32 32.5 11.24Z" fill="#FCFCFC" fill-opacity="1.000000" fill-rule="nonzero"/>
</svg>
